X:9846
T:Lord Hardwickes March. TLY.031
M:4/4
L:1/8
Q:160
S:Wm.Tildesley,Swinton,Lancs.1860s.
R:March
O:England.
A:Lancashire.
N:Sign at start of first bar ofA. Pause at end of A part. Sign at end of
N:B part and at end of D par
H:1860.
Z:vmp.Taz Tarry.
K:D
a>g|:f2 f>f f2f2|~f3-a d'agf|e2 e>e e2e2|~e3-f g-b.a.g|!
f2 f>f f2f2|~f3-a d'agf|e-b.a.g f-e.d.c|d2 d>d d2:|!
|:A>A|A2 A>A A2A>A|F2 D2 A2 a>a|a2 a>a a2 a>a|f2 d2 a2 a>a|!
a2 A>A A2 a>a|a2A>A A2 a>a|.a.a.a.a .a.a.a-^g| a2 a>a a-b.a.g||!
d4 A3 d|f4 d3 f|a2 d'>a f2 a>f| d2 f>d A2 g2|!
f2 (d/2e/2f/2g/2) aagg|f2 (d/2e/2f/2g/2) aagg|f2 a>a f2 d2|a2 A>AA2 z2:|
